/* XPM */
static char *icon_rtl_32x_xpm[] = {
"32 32 68 1",
"A	c #000000",
"B	c #040400",
"C	c #D5D500",
"D	c #FFFF00",
"E	c #FEFE00",
"F	c #F6F600",
"G	c #DBDB00",
"H	c #999900",
"I	c #242400",
"J	c #7A7A00",
"K	c #818100",
"L	c #CDCD00",
"M	c #030300",
"N	c #E3E300",
"O	c #727200",
"P	c #707000",
"Q	c #7B7B00",
"R	c #ACAC00",
"S	c #F9F900",
"T	c #EAEA00",
"U	c #232300",
"V	c #373700",
"W	c #747400",
"X	c #A0A000",
"Y	c #A6A600",
"Z	c #3A3A00",
"a	c #5C5C00",
"b	c #FDFD00",
"c	c #878700",
"d	c #525200",
"e	c #1A1A00",
"f	c #F8F800",
"g	c #A8A800",
"h	c #3E3E00",
"i	c #FCFC00",
"j	c #8A8A00",
"k	c #D1D100",
"l	c #1B1B00",
"m	c #181800",
"n	c #222200",
"o	c #585800",
"p	c #DCDC00",
"q	c #E5E500",
"r	c #1F1F00",
"s	c #9A9A00",
"t	c #1D1D00",
"u	c #4A4A00",
"v	c #484800",
"w	c #848400",
"x	c #676700",
"y	c #060600",
"z	c #CFCF00",
"0	c #E7E700",
"1	c #161600",
"2	c #474700",
"3	c #959500",
"4	c #020200",
"5	c #B1B100",
"6	c #343400",
"7	c #2C2C00",
"8	c #C1C100",
"9	c #E4E400",
"+	c #797900",
"/	c #787800",
"!	c #4D4D00",
"#	c #929200",
"$	c #5E5E00",
"%	c #A5A500",
"AAAAAAAAAAAAAAAAAAAAAAAAAAAAAAAA",
"AAAAAAAAAAAAAAAAAAAAAAAAAAAAAAAA",
"AAAAAAAAAAAAAAAAAAAAAAAAAAAAAAAA",
"AAAAAAAAAAAAAAAAAAAAAAAAAAAAAAAA",
"AAAAAAAAAAAAAAAAAAAAAAAAAAAAAAAA",
"AAAAAAAAAAAAAAAAAAAAAAAAAAAAAAAA",
"AAAAAAAAAAAAAAAAAAAAAAAAAAAAAAAA",
"AAAAAAAAAAAAAAAAAAAAAAAAAAAAAAAA",
"AAAAAAAAAAAAAAAAAAAAAAAAAAAAAAAA",
"AAAAAAAAAAAAAAAAAAAAAAAAAAAAAAAA",
"BCDDEFGHIAAJDDDDDDDDDKBCLMAAAAAA",
"BCNOPQRSTUAVWWWXEYWWWZBCLMAAAAAA",
"BCLMAAAabcAAAAAdEaAAAABCLMAAAAAA",
"BCLMAAAefgAAAAAdEaAAAABCLMAAAAAA",
"BCLMAAAhijAAAAAdEaAAAABCLMAAAAAA",
"BCklmnopqrAAAAAdEaAAAABCLMAAAAAA",
"BCDDDDbstAAAAAAdEaAAAABCLMAAAAAA",
"BCGuvwbxAAAAAAAdEaAAAABCLMAAAAAA",
"BCLMAyz01AAAAAAdEaAAAABCLMAAAAAA",
"BCLMAA2i3AAAAAAdEaAAAABCLMAAAAAA",
"BCLMAA45f6AAAAAdEaAAAABCLMAAAAAA",
"BCLMAAA7F8BAAAAdEaAAAABC9+////!A",
"BCLMAAAA#b$AAAAdEaAAAABCDDDDDD%A",
"AAAAAAAAAAAAAAAAAAAAAAAAAAAAAAAA",
"AAAAAAAAAAAAAAAAAAAAAAAAAAAAAAAA",
"AAAAAAAAAAAAAAAAAAAAAAAAAAAAAAAA",
"AAAAAAAAAAAAAAAAAAAAAAAAAAAAAAAA",
"AAAAAAAAAAAAAAAAAAAAAAAAAAAAAAAA",
"AAAAAAAAAAAAAAAAAAAAAAAAAAAAAAAA",
"AAAAAAAAAAAAAAAAAAAAAAAAAAAAAAAA",
"AAAAAAAAAAAAAAAAAAAAAAAAAAAAAAAA",
"AAAAAAAAAAAAAAAAAAAAAAAAAAAAAAAA"
};
